icons/modern/sports-medal.svg

<svg width="32" height="32" viewBox="0 0 32 32" fill="none" xmlns="http://www.w3.org/2000/svg">
<g filter="url(#filter0_i_18_1461)">
<path d="M17.3749 11.6602C17.1749 11.6402 16.9749 11.6202 16.7749 11.5802C15.5349 11.3602 14.3749 10.8002 13.4349 9.94016C10.6949 7.83016 7.42488 5.17016 5.75488 2.16016H5.40487C3.95487 2.16016 3.04488 3.72016 3.75488 4.98016C5.07488 7.31016 6.93488 9.29015 9.17488 10.7502C9.93488 11.3402 13.7206 13.6189 14.6806 13.6189L17.3749 11.6602Z" fill="url(#paint0_radial_18_1461)"/>
<path d="M17.3749 11.6602C17.1749 11.6402 16.9749 11.6202 16.7749 11.5802C15.5349 11.3602 14.3749 10.8002 13.4349 9.94016C10.6949 7.83016 7.42488 5.17016 5.75488 2.16016H5.40487C3.95487 2.16016 3.04488 3.72016 3.75488 4.98016C5.07488 7.31016 6.93488 9.29015 9.17488 10.7502C9.93488 11.3402 13.7206 13.6189 14.6806 13.6189L17.3749 11.6602Z" fill="url(#paint1_radial_18_1461)"/>
</g>
<path d="M16.2048 7.37014L16.381 8.60871L14.8175 9.80427L9.797 2.15015H11.9748C12.6448 2.15015 13.2648 2.50014 13.5948 3.08014L16.2048 7.37014Z" fill="url(#paint2_linear_18_1461)"/>
<path d="M19.2819 8.65603L17.6116 11.6702H20.2549C21.2249 11.6702 19.4949 12.8964 20.2549 12.3064C22.7118 11.2751 27.0249 7.32016 28.3349 4.99016C29.0549 3.72016 28.1349 2.16016 26.6949 2.16016H26.3449C24.1525 4.44949 21.62 6.74536 19.2819 8.65603Z" fill="url(#paint3_linear_18_1461)"/>
<path d="M16.0148 11.6289C15.9182 11.6408 15.8215 11.6505 15.7249 11.6602L15.5249 11.9002L15.7348 11.5729C14.5099 11.3481 13.3647 10.7909 12.4348 9.94016C9.69485 7.83016 7.217 5.16015 5.547 2.15015H9.93484L16.0148 11.6289Z" fill="url(#paint4_linear_18_1461)"/>
<path d="M16.0148 11.6289C15.9182 11.6408 15.8215 11.6505 15.7249 11.6602L15.5249 11.9002L15.7348 11.5729C14.5099 11.3481 13.3647 10.7909 12.4348 9.94016C9.69485 7.83016 7.217 5.16015 5.547 2.15015H9.93484L16.0148 11.6289Z" fill="url(#paint5_linear_18_1461)"/>
<path d="M16.6088 10.211L16.7894 11.4809C17.8536 11.2143 18.8433 10.6918 19.6649 9.94016C22.4049 7.83016 24.6749 5.17016 26.3449 2.16016H21.7749L16.6088 10.211Z" fill="url(#paint6_linear_18_1461)"/>
<path d="M16.6088 10.211L16.7894 11.4809C17.8536 11.2143 18.8433 10.6918 19.6649 9.94016C22.4049 7.83016 24.6749 5.17016 26.3449 2.16016H21.7749L16.6088 10.211Z" fill="url(#paint7_linear_18_1461)"/>
<path d="M16.421 11.6601H16.3747L16.5748 11.9002L16.421 11.6601Z" fill="url(#paint8_linear_18_1461)"/>
<path d="M16.421 11.6601H16.3747L16.5748 11.9002L16.421 11.6601Z" fill="url(#paint9_linear_18_1461)"/>
<path d="M22.1548 2.16016H20.1148C19.4448 2.16016 18.8348 2.51016 18.4948 3.09016L13.2748 11.6702H16.0548L22.1548 2.16016Z" fill="url(#paint10_linear_18_1461)"/>
<path d="M22.1548 2.16016H20.1148C19.4448 2.16016 18.8348 2.51016 18.4948 3.09016L13.2748 11.6702H16.0548L22.1548 2.16016Z" fill="url(#paint11_linear_18_1461)"/>
<path d="M16.037 30.0943C21.5819 30.0943 26.077 25.4873 26.077 19.8043C26.077 14.1213 21.5819 9.51428 16.037 9.51428C10.4921 9.51428 5.99701 14.1213 5.99701 19.8043C5.99701 25.4873 10.4921 30.0943 16.037 30.0943Z" fill="url(#paint12_linear_18_1461)"/>
<path d="M16.037 30.0943C21.5819 30.0943 26.077 25.4873 26.077 19.8043C26.077 14.1213 21.5819 9.51428 16.037 9.51428C10.4921 9.51428 5.99701 14.1213 5.99701 19.8043C5.99701 25.4873 10.4921 30.0943 16.037 30.0943Z" fill="url(#paint13_linear_18_1461)"/>
<path d="M16.037 28.2443C20.5823 28.2443 24.267 24.4655 24.267 19.8043C24.267 15.143 20.5823 11.3643 16.037 11.3643C11.4917 11.3643 7.80701 15.143 7.80701 19.8043C7.80701 24.4655 11.4917 28.2443 16.037 28.2443Z" fill="url(#paint14_linear_18_1461)"/>
<path d="M16.037 28.2443C20.5823 28.2443 24.267 24.4655 24.267 19.8043C24.267 15.143 20.5823 11.3643 16.037 11.3643C11.4917 11.3643 7.80701 15.143 7.80701 19.8043C7.80701 24.4655 11.4917 28.2443 16.037 28.2443Z" fill="url(#paint15_radial_18_1461)"/>
<path d="M16.037 28.2443C20.5823 28.2443 24.267 24.4655 24.267 19.8043C24.267 15.143 20.5823 11.3643 16.037 11.3643C11.4917 11.3643 7.80701 15.143 7.80701 19.8043C7.80701 24.4655 11.4917 28.2443 16.037 28.2443Z" fill="url(#paint16_radial_18_1461)"/>
<path d="M16.047 28.8543C13.687 28.8543 11.467 27.9143 9.80698 26.2043C8.13698 24.4943 7.21698 22.2243 7.21698 19.8043C7.21698 17.3843 8.13698 15.1143 9.80698 13.4043C13.247 9.87434 18.847 9.87434 22.297 13.4043C25.737 16.9343 25.737 22.6743 22.297 26.2043C20.617 27.9143 18.397 28.8543 16.047 28.8543ZM16.037 11.9843C14.087 11.9843 12.127 12.7443 10.647 14.2743C9.20698 15.7543 8.41698 17.7143 8.41698 19.8043C8.41698 21.8943 9.20698 23.8543 10.647 25.3343C12.087 26.8143 14.007 27.6243 16.037 27.6243C18.077 27.6243 19.987 26.8143 21.427 25.3343C24.397 22.2843 24.397 17.3243 21.427 14.2743C19.947 12.7443 17.997 11.9843 16.037 11.9843Z" fill="url(#paint17_linear_18_1461)"/>
<g filter="url(#filter1_ii_18_1461)">
<path d="M16.647 15.7543L17.477 17.4743C17.577 17.6743 17.767 17.8243 17.987 17.8543L19.837 18.1343C20.387 18.2143 20.617 18.9143 20.207 19.3143L18.927 20.5943C18.737 20.7843 18.677 21.0642 18.757 21.3242L19.347 23.0343C19.547 23.6043 18.987 24.1443 18.437 23.9043L16.297 22.9443C16.127 22.8643 15.927 22.8643 15.757 22.9443L13.617 23.9043C13.077 24.1443 12.507 23.6043 12.707 23.0343L13.297 21.3242C13.387 21.0642 13.317 20.7843 13.127 20.5943L11.847 19.3143C11.447 18.9143 11.667 18.2143 12.217 18.1343L14.067 17.8543C14.287 17.8243 14.477 17.6843 14.577 17.4743L15.407 15.7543C15.677 15.2343 16.397 15.2343 16.647 15.7543Z" fill="url(#paint18_linear_18_1461)"/>
<path d="M16.647 15.7543L17.477 17.4743C17.577 17.6743 17.767 17.8243 17.987 17.8543L19.837 18.1343C20.387 18.2143 20.617 18.9143 20.207 19.3143L18.927 20.5943C18.737 20.7843 18.677 21.0642 18.757 21.3242L19.347 23.0343C19.547 23.6043 18.987 24.1443 18.437 23.9043L16.297 22.9443C16.127 22.8643 15.927 22.8643 15.757 22.9443L13.617 23.9043C13.077 24.1443 12.507 23.6043 12.707 23.0343L13.297 21.3242C13.387 21.0642 13.317 20.7843 13.127 20.5943L11.847 19.3143C11.447 18.9143 11.667 18.2143 12.217 18.1343L14.067 17.8543C14.287 17.8243 14.477 17.6843 14.577 17.4743L15.407 15.7543C15.677 15.2343 16.397 15.2343 16.647 15.7543Z" fill="url(#paint19_radial_18_1461)"/>
</g>
<defs>
<filter id="filter0_i_18_1461" x="3.50867" y="2.01016" width="14.0162" height="11.6087" filterUnits="userSpaceOnUse" color-interpolation-filters="sRGB">
<feFlood flood-opacity="0" result="BackgroundImageFix"/>
<feBlend mode="normal" in="SourceGraphic" in2="BackgroundImageFix" result="shape"/>
<feColorMatrix in="SourceAlpha" type="matrix" values="0 0 0 0 0 0 0 0 0 0 0 0 0 0 0 0 0 0 127 0" result="hardAlpha"/>
<feOffset dx="0.15" dy="-0.15"/>
<feGaussianBlur stdDeviation="0.25"/>
<feComposite in2="hardAlpha" operator="arithmetic" k2="-1" k3="1"/>
<feColorMatrix type="matrix" values="0 0 0 0 0.254902 0 0 0 0 0.329412 0 0 0 0 0.729412 0 0 0 1 0"/>
<feBlend mode="normal" in2="shape" result="effect1_innerShadow_18_1461"/>
</filter>
<filter id="filter1_ii_18_1461" x="11.3424" y="15.0643" width="9.22362" height="8.89851" filterUnits="userSpaceOnUse" color-interpolation-filters="sRGB">
<feFlood flood-opacity="0" result="BackgroundImageFix"/>
<feBlend mode="normal" in="SourceGraphic" in2="BackgroundImageFix" result="shape"/>
<feColorMatrix in="SourceAlpha" type="matrix" values="0 0 0 0 0 0 0 0 0 0 0 0 0 0 0 0 0 0 127 0" result="hardAlpha"/>
<feOffset dx="-0.3" dy="-0.3"/>
<feGaussianBlur stdDeviation="0.375"/>
<feComposite in2="hardAlpha" operator="arithmetic" k2="-1" k3="1"/>
<feColorMatrix type="matrix" values="0 0 0 0 0.290196 0 0 0 0 0.14902 0 0 0 0 0.14902 0 0 0 1 0"/>
<feBlend mode="normal" in2="shape" result="effect1_innerShadow_18_1461"/>
<feColorMatrix in="SourceAlpha" type="matrix" values="0 0 0 0 0 0 0 0 0 0 0 0 0 0 0 0 0 0 127 0" result="hardAlpha"/>
<feOffset dx="0.2" dy="-0.2"/>
<feGaussianBlur stdDeviation="0.075"/>
<feComposite in2="hardAlpha" operator="arithmetic" k2="-1" k3="1"/>
<feColorMatrix type="matrix" values="0 0 0 0 0.517647 0 0 0 0 0.372549 0 0 0 0 0.34902 0 0 0 1 0"/>
<feBlend mode="normal" in2="effect1_innerShadow_18_1461" result="effect2_innerShadow_18_1461"/>
</filter>
<radialGradient id="paint0_radial_18_1461" cx="0" cy="0" r="1" gradientUnits="userSpaceOnUse" gradientTransform="translate(10.4418 5.86532) rotate(124.323) scale(6.48778 12.8773)">
<stop offset="0.360874" stop-color="#3FA0F7"/>
<stop offset="1" stop-color="#2F60C2"/>
</radialGradient>
<radialGradient id="paint1_radial_18_1461" cx="0" cy="0" r="1" gradientUnits="userSpaceOnUse" gradientTransform="translate(10.7341 12.2678) rotate(-90) scale(3.22394 3.90129)">
<stop stop-color="#3258BF"/>
<stop offset="1" stop-color="#3258BF" stop-opacity="0"/>
</radialGradient>
<linearGradient id="paint2_linear_18_1461" x1="11.3244" y1="2.15015" x2="16.381" y2="9.80427" gradientUnits="userSpaceOnUse">
<stop stop-color="#F53F56"/>
<stop offset="1" stop-color="#EA3586"/>
</linearGradient>
<linearGradient id="paint3_linear_18_1461" x1="25.6608" y1="3.87383" x2="25.1476" y2="10.387" gradientUnits="userSpaceOnUse">
<stop stop-color="#FD4058"/>
<stop offset="1" stop-color="#F62E9E"/>
</linearGradient>
<linearGradient id="paint4_linear_18_1461" x1="13.307" y1="2.99627" x2="7.76448" y2="11.7005" gradientUnits="userSpaceOnUse">
<stop stop-color="#E3D4F3"/>
<stop offset="1" stop-color="#E3C2F5"/>
</linearGradient>
<linearGradient id="paint5_linear_18_1461" x1="13.9098" y1="1.81084" x2="13.9098" y2="3.47044" gradientUnits="userSpaceOnUse">
<stop stop-color="#D3CCD9"/>
<stop offset="1" stop-color="#D3CCD9" stop-opacity="0"/>
</linearGradient>
<linearGradient id="paint6_linear_18_1461" x1="23.4897" y1="3.00541" x2="17.766" y2="11.2554" gradientUnits="userSpaceOnUse">
<stop stop-color="#E3D4F3"/>
<stop offset="1" stop-color="#E3C2F5"/>
</linearGradient>
<linearGradient id="paint7_linear_18_1461" x1="24.0424" y1="1.8212" x2="24.0424" y2="3.47909" gradientUnits="userSpaceOnUse">
<stop stop-color="#D3CCD9"/>
<stop offset="1" stop-color="#D3CCD9" stop-opacity="0"/>
</linearGradient>
<linearGradient id="paint8_linear_18_1461" x1="23.4897" y1="3.00541" x2="17.766" y2="11.2554" gradientUnits="userSpaceOnUse">
<stop stop-color="#E3D4F3"/>
<stop offset="1" stop-color="#E3C2F5"/>
</linearGradient>
<linearGradient id="paint9_linear_18_1461" x1="24.0424" y1="1.8212" x2="24.0424" y2="3.47909" gradientUnits="userSpaceOnUse">
<stop stop-color="#D3CCD9"/>
<stop offset="1" stop-color="#D3CCD9" stop-opacity="0"/>
</linearGradient>
<linearGradient id="paint10_linear_18_1461" x1="20.9305" y1="2.71265" x2="16.3055" y2="10.8376" gradientUnits="userSpaceOnUse">
<stop stop-color="#3EA0F4"/>
<stop offset="1" stop-color="#437EE0"/>
</linearGradient>
<linearGradient id="paint11_linear_18_1461" x1="15.0932" y1="7.31836" x2="16.0467" y2="7.95407" gradientUnits="userSpaceOnUse">
<stop stop-color="#6C65C0"/>
<stop offset="1" stop-color="#6C65C0" stop-opacity="0"/>
</linearGradient>
<linearGradient id="paint12_linear_18_1461" x1="21.4036" y1="16.1568" x2="13.3411" y2="29.7818" gradientUnits="userSpaceOnUse">
<stop stop-color="#F4C654"/>
<stop offset="1" stop-color="#DC9729"/>
</linearGradient>
<linearGradient id="paint13_linear_18_1461" x1="12.5286" y1="30.5943" x2="14.9036" y2="17.1568" gradientUnits="userSpaceOnUse">
<stop stop-color="#FA8547"/>
<stop offset="1" stop-color="#FA8547" stop-opacity="0"/>
</linearGradient>
<linearGradient id="paint14_linear_18_1461" x1="12.2325" y1="18.7339" x2="24.5094" y2="18.7339" gradientUnits="userSpaceOnUse">
<stop stop-color="#FAA945"/>
<stop offset="1" stop-color="#EC9936"/>
</linearGradient>
<radialGradient id="paint15_radial_18_1461" cx="0" cy="0" r="1" gradientUnits="userSpaceOnUse" gradientTransform="translate(19.228 19.8043) rotate(180) scale(10.9797 9.59463)">
<stop offset="0.843882" stop-color="#F7B44D" stop-opacity="0"/>
<stop offset="1" stop-color="#F7B44D"/>
</radialGradient>
<radialGradient id="paint16_radial_18_1461" cx="0" cy="0" r="1" gradientUnits="userSpaceOnUse" gradientTransform="translate(13.9003 19.8043) scale(10.3667 9.34393)">
<stop offset="0.826283" stop-color="#D2801F" stop-opacity="0"/>
<stop offset="1" stop-color="#D2801F"/>
</radialGradient>
<linearGradient id="paint17_linear_18_1461" x1="24.0924" y1="18.2244" x2="16.047" y2="18.2244" gradientUnits="userSpaceOnUse">
<stop stop-color="#F9A842"/>
<stop offset="1" stop-color="#FAA742"/>
<stop offset="1" stop-color="#FAA742"/>
</linearGradient>
<linearGradient id="paint18_linear_18_1461" x1="15.0818" y1="19.0748" x2="18.4004" y2="24.2418" gradientUnits="userSpaceOnUse">
<stop stop-color="#864B60"/>
<stop offset="1" stop-color="#5D3247"/>
</linearGradient>
<radialGradient id="paint19_radial_18_1461" cx="0" cy="0" r="1" gradientUnits="userSpaceOnUse" gradientTransform="translate(18.4036 16.9068) rotate(130.746) scale(2.68113 3.65655)">
<stop offset="0.200652" stop-color="#602543"/>
<stop offset="1" stop-color="#602543" stop-opacity="0"/>
</radialGradient>
</defs>
</svg>

<svg width="32" height="32" fill="none" xmlns="http://www.w3.org/2000/svg"><g filter="url(#a)"><path d="M17.375 11.66c-.2-.02-.4-.04-.6-.08-1.24-.22-2.4-.78-3.34-1.64-2.74-2.11-6.01-4.77-7.68-7.78h-.35c-1.45 0-2.36 1.56-1.65 2.82 1.32 2.33 3.18 4.31 5.42 5.77.76.59 4.546 2.869 5.506 2.869l2.694-1.959Z" fill="url(#b)"/><path d="M17.375 11.66c-.2-.02-.4-.04-.6-.08-1.24-.22-2.4-.78-3.34-1.64-2.74-2.11-6.01-4.77-7.68-7.78h-.35c-1.45 0-2.36 1.56-1.65 2.82 1.32 2.33 3.18 4.31 5.42 5.77.76.59 4.546 2.869 5.506 2.869l2.694-1.959Z" fill="url(#c)"/></g><path d="m16.205 7.37.176 1.239-1.563 1.195L9.797 2.15h2.178c.67 0 1.29.35 1.62.93l2.61 4.29Z" fill="url(#d)"/><path d="m19.282 8.656-1.67 3.014h2.643c.97 0-.76 1.226 0 .636 2.457-1.03 6.77-4.986 8.08-7.316.72-1.27-.2-2.83-1.64-2.83h-.35c-2.192 2.29-4.725 4.585-7.063 6.496Z" fill="url(#e)"/><path d="M16.015 11.629c-.097.012-.194.021-.29.031l-.2.24.21-.327a6.66 6.66 0 0 1-3.3-1.633c-2.74-2.11-5.218-4.78-6.888-7.79h4.388l6.08 9.479Z" fill="url(#f)"/><path d="M16.015 11.629c-.097.012-.194.021-.29.031l-.2.24.21-.327a6.66 6.66 0 0 1-3.3-1.633c-2.74-2.11-5.218-4.78-6.888-7.79h4.388l6.08 9.479Z" fill="url(#g)"/><path d="m16.609 10.211.18 1.27a6.645 6.645 0 0 0 2.876-1.54c2.74-2.11 5.01-4.77 6.68-7.78h-4.57l-5.166 8.05Z" fill="url(#h)"/><path d="m16.609 10.211.18 1.27a6.645 6.645 0 0 0 2.876-1.54c2.74-2.11 5.01-4.77 6.68-7.78h-4.57l-5.166 8.05Z" fill="url(#i)"/><path d="M16.421 11.66h-.046l.2.24-.154-.24Z" fill="url(#j)"/><path d="M16.421 11.66h-.046l.2.24-.154-.24Z" fill="url(#k)"/><path d="M22.155 2.16h-2.04c-.67 0-1.28.35-1.62.93l-5.22 8.58h2.78l6.1-9.51Z" fill="url(#l)"/><path d="M22.155 2.16h-2.04c-.67 0-1.28.35-1.62.93l-5.22 8.58h2.78l6.1-9.51Z" fill="url(#m)"/><path d="M16.037 30.094c5.545 0 10.04-4.607 10.04-10.29 0-5.683-4.495-10.29-10.04-10.29-5.545 0-10.04 4.607-10.04 10.29 0 5.683 4.495 10.29 10.04 10.29Z" fill="url(#n)"/><path d="M16.037 30.094c5.545 0 10.04-4.607 10.04-10.29 0-5.683-4.495-10.29-10.04-10.29-5.545 0-10.04 4.607-10.04 10.29 0 5.683 4.495 10.29 10.04 10.29Z" fill="url(#o)"/><path d="M16.037 28.244c4.545 0 8.23-3.779 8.23-8.44s-3.685-8.44-8.23-8.44-8.23 3.779-8.23 8.44c0 4.662 3.685 8.44 8.23 8.44Z" fill="url(#p)"/><path d="M16.037 28.244c4.545 0 8.23-3.779 8.23-8.44s-3.685-8.44-8.23-8.44-8.23 3.779-8.23 8.44c0 4.662 3.685 8.44 8.23 8.44Z" fill="url(#q)"/><path d="M16.037 28.244c4.545 0 8.23-3.779 8.23-8.44s-3.685-8.44-8.23-8.44-8.23 3.779-8.23 8.44c0 4.662 3.685 8.44 8.23 8.44Z" fill="url(#r)"/><path d="M16.047 28.854c-2.36 0-4.58-.94-6.24-2.65a9.098 9.098 0 0 1-2.59-6.4c0-2.42.92-4.69 2.59-6.4a8.69 8.69 0 0 1 12.49 0c3.44 3.53 3.44 9.27 0 12.8-1.68 1.71-3.9 2.65-6.25 2.65Zm-.01-16.87c-1.95 0-3.91.76-5.39 2.29a7.872 7.872 0 0 0-2.23 5.53c0 2.09.79 4.05 2.23 5.53a7.476 7.476 0 0 0 5.39 2.29c2.04 0 3.95-.81 5.39-2.29 2.97-3.05 2.97-8.01 0-11.06a7.46 7.46 0 0 0-5.39-2.29Z" fill="url(#s)"/><g filter="url(#t)"><path d="m16.647 15.754.83 1.72c.1.2.29.35.51.38l1.85.28c.55.08.78.78.37 1.18l-1.28 1.28c-.19.19-.25.47-.17.73l.59 1.71c.2.57-.36 1.11-.91.87l-2.14-.96a.638.638 0 0 0-.54 0l-2.14.96c-.54.24-1.11-.3-.91-.87l.59-1.71c.09-.26.02-.54-.17-.73l-1.28-1.28c-.4-.4-.18-1.1.37-1.18l1.85-.28c.22-.03.41-.17.51-.38l.83-1.72c.27-.52.99-.52 1.24 0Z" fill="url(#u)"/><path d="m16.647 15.754.83 1.72c.1.2.29.35.51.38l1.85.28c.55.08.78.78.37 1.18l-1.28 1.28c-.19.19-.25.47-.17.73l.59 1.71c.2.57-.36 1.11-.91.87l-2.14-.96a.638.638 0 0 0-.54 0l-2.14.96c-.54.24-1.11-.3-.91-.87l.59-1.71c.09-.26.02-.54-.17-.73l-1.28-1.28c-.4-.4-.18-1.1.37-1.18l1.85-.28c.22-.03.41-.17.51-.38l.83-1.72c.27-.52.99-.52 1.24 0Z" fill="url(#v)"/></g><defs><linearGradient id="d" x1="11.324" y1="2.15" x2="16.381" y2="9.804" gradientUnits="userSpaceOnUse"><stop stop-color="#F53F56"/><stop offset="1" stop-color="#EA3586"/></linearGradient><linearGradient id="e" x1="25.661" y1="3.874" x2="25.148" y2="10.387" gradientUnits="userSpaceOnUse"><stop stop-color="#FD4058"/><stop offset="1" stop-color="#F62E9E"/></linearGradient><linearGradient id="f" x1="13.307" y1="2.996" x2="7.764" y2="11.7" gradientUnits="userSpaceOnUse"><stop stop-color="#E3D4F3"/><stop offset="1" stop-color="#E3C2F5"/></linearGradient><linearGradient id="g" x1="13.91" y1="1.811" x2="13.91" y2="3.47" gradientUnits="userSpaceOnUse"><stop stop-color="#D3CCD9"/><stop offset="1" stop-color="#D3CCD9" stop-opacity="0"/></linearGradient><linearGradient id="h" x1="23.49" y1="3.005" x2="17.766" y2="11.255" gradientUnits="userSpaceOnUse"><stop stop-color="#E3D4F3"/><stop offset="1" stop-color="#E3C2F5"/></linearGradient><linearGradient id="i" x1="24.042" y1="1.821" x2="24.042" y2="3.479" gradientUnits="userSpaceOnUse"><stop stop-color="#D3CCD9"/><stop offset="1" stop-color="#D3CCD9" stop-opacity="0"/></linearGradient><linearGradient id="j" x1="23.49" y1="3.005" x2="17.766" y2="11.255" gradientUnits="userSpaceOnUse"><stop stop-color="#E3D4F3"/><stop offset="1" stop-color="#E3C2F5"/></linearGradient><linearGradient id="k" x1="24.042" y1="1.821" x2="24.042" y2="3.479" gradientUnits="userSpaceOnUse"><stop stop-color="#D3CCD9"/><stop offset="1" stop-color="#D3CCD9" stop-opacity="0"/></linearGradient><linearGradient id="l" x1="20.93" y1="2.713" x2="16.305" y2="10.838" gradientUnits="userSpaceOnUse"><stop stop-color="#3EA0F4"/><stop offset="1" stop-color="#437EE0"/></linearGradient><linearGradient id="m" x1="15.093" y1="7.318" x2="16.047" y2="7.954" gradientUnits="userSpaceOnUse"><stop stop-color="#6C65C0"/><stop offset="1" stop-color="#6C65C0" stop-opacity="0"/></linearGradient><linearGradient id="n" x1="21.404" y1="16.157" x2="13.341" y2="29.782" gradientUnits="userSpaceOnUse"><stop stop-color="#F4C654"/><stop offset="1" stop-color="#DC9729"/></linearGradient><linearGradient id="o" x1="12.529" y1="30.594" x2="14.904" y2="17.157" gradientUnits="userSpaceOnUse"><stop stop-color="#FA8547"/><stop offset="1" stop-color="#FA8547" stop-opacity="0"/></linearGradient><linearGradient id="p" x1="12.232" y1="18.734" x2="24.509" y2="18.734" gradientUnits="userSpaceOnUse"><stop stop-color="#FAA945"/><stop offset="1" stop-color="#EC9936"/></linearGradient><linearGradient id="s" x1="24.092" y1="18.224" x2="16.047" y2="18.224" gradientUnits="userSpaceOnUse"><stop stop-color="#F9A842"/><stop offset="1" stop-color="#FAA742"/><stop offset="1" stop-color="#FAA742"/></linearGradient><linearGradient id="u" x1="15.082" y1="19.075" x2="18.4" y2="24.242" gradientUnits="userSpaceOnUse"><stop stop-color="#864B60"/><stop offset="1" stop-color="#5D3247"/></linearGradient><radialGradient id="b" cx="0" cy="0" r="1" gradientUnits="userSpaceOnUse" gradientTransform="rotate(124.323 3.672 5.69) scale(6.48778 12.8773)"><stop offset=".361" stop-color="#3FA0F7"/><stop offset="1" stop-color="#2F60C2"/></radialGradient><radialGradient id="c" cx="0" cy="0" r="1" gradientUnits="userSpaceOnUse" gradientTransform="matrix(0 -3.22394 3.90129 0 10.734 12.268)"><stop stop-color="#3258BF"/><stop offset="1" stop-color="#3258BF" stop-opacity="0"/></radialGradient><radialGradient id="q" cx="0" cy="0" r="1" gradientUnits="userSpaceOnUse" gradientTransform="matrix(-10.9797 0 0 -9.59463 19.228 19.804)"><stop offset=".844" stop-color="#F7B44D" stop-opacity="0"/><stop offset="1" stop-color="#F7B44D"/></radialGradient><radialGradient id="r" cx="0" cy="0" r="1" gradientUnits="userSpaceOnUse" gradientTransform="matrix(10.3667 0 0 9.34393 13.9 19.804)"><stop offset=".826" stop-color="#D2801F" stop-opacity="0"/><stop offset="1" stop-color="#D2801F"/></radialGradient><radialGradient id="v" cx="0" cy="0" r="1" gradientUnits="userSpaceOnUse" gradientTransform="rotate(130.746 5.327 12.672) scale(2.68113 3.65655)"><stop offset=".201" stop-color="#602543"/><stop offset="1" stop-color="#602543" stop-opacity="0"/></radialGradient><filter id="a" x="3.509" y="2.01" width="14.016" height="11.609" filterUnits="userSpaceOnUse" color-interpolation-filters="sRGB"><feFlood flood-opacity="0" result="BackgroundImageFix"/><feBlend in="SourceGraphic" in2="BackgroundImageFix" result="shape"/><feColorMatrix in="SourceAlpha" values="0 0 0 0 0 0 0 0 0 0 0 0 0 0 0 0 0 0 127 0" result="hardAlpha"/><feOffset dx=".15" dy="-.15"/><feGaussianBlur stdDeviation=".25"/><feComposite in2="hardAlpha" operator="arithmetic" k2="-1" k3="1"/><feColorMatrix values="0 0 0 0 0.254902 0 0 0 0 0.329412 0 0 0 0 0.729412 0 0 0 1 0"/><feBlend in2="shape" result="effect1_innerShadow_18_1461"/></filter><filter id="t" x="11.342" y="15.064" width="9.224" height="8.899" filterUnits="userSpaceOnUse" color-interpolation-filters="sRGB"><feFlood flood-opacity="0" result="BackgroundImageFix"/><feBlend in="SourceGraphic" in2="BackgroundImageFix" result="shape"/><feColorMatrix in="SourceAlpha" values="0 0 0 0 0 0 0 0 0 0 0 0 0 0 0 0 0 0 127 0" result="hardAlpha"/><feOffset dx="-.3" dy="-.3"/><feGaussianBlur stdDeviation=".375"/><feComposite in2="hardAlpha" operator="arithmetic" k2="-1" k3="1"/><feColorMatrix values="0 0 0 0 0.290196 0 0 0 0 0.14902 0 0 0 0 0.14902 0 0 0 1 0"/><feBlend in2="shape" result="effect1_innerShadow_18_1461"/><feColorMatrix in="SourceAlpha" values="0 0 0 0 0 0 0 0 0 0 0 0 0 0 0 0 0 0 127 0" result="hardAlpha"/><feOffset dx=".2" dy="-.2"/><feGaussianBlur stdDeviation=".075"/><feComposite in2="hardAlpha" operator="arithmetic" k2="-1" k3="1"/><feColorMatrix values="0 0 0 0 0.517647 0 0 0 0 0.372549 0 0 0 0 0.34902 0 0 0 1 0"/><feBlend in2="effect1_innerShadow_18_1461" result="effect2_innerShadow_18_1461"/></filter></defs></svg>
